Numix-GalliumOS/16/categories/applications-ruby.svg

<?xml version="1.0" encoding="UTF-8" standalone="no"?>
<svg
   xmlns:dc="http://purl.org/dc/elements/1.1/"
   xmlns:cc="http://creativecommons.org/ns#"
   xmlns:rdf="http://www.w3.org/1999/02/22-rdf-syntax-ns#"
   xmlns:svg="http://www.w3.org/2000/svg"
   xmlns="http://www.w3.org/2000/svg"
   xmlns:sodipodi="http://sodipodi.sourceforge.net/DTD/sodipodi-0.dtd"
   xmlns:inkscape="http://www.inkscape.org/namespaces/inkscape"
   width="16"
   height="16"
   viewBox="0 0 16 16"
   id="svg2"
   version="1.1"
   inkscape:version="0.91 r"
   sodipodi:docname="applications-ruby.svg">
  <metadata
     id="metadata36">
    <rdf:RDF>
      <cc:Work
         rdf:about="">
        <dc:format>image/svg+xml</dc:format>
        <dc:type
           rdf:resource="http://purl.org/dc/dcmitype/StillImage" />
        <dc:title />
      </cc:Work>
    </rdf:RDF>
  </metadata>
  <defs
     id="defs34" />
  <sodipodi:namedview
     pagecolor="#ffffff"
     bordercolor="#666666"
     borderopacity="1"
     objecttolerance="10"
     gridtolerance="10"
     guidetolerance="10"
     inkscape:pageopacity="0"
     inkscape:pageshadow="2"
     inkscape:window-width="1920"
     inkscape:window-height="1056"
     id="namedview32"
     showgrid="true"
     inkscape:zoom="16"
     inkscape:cx="13.282791"
     inkscape:cy="16.653751"
     inkscape:window-x="0"
     inkscape:window-y="24"
     inkscape:window-maximized="1"
     inkscape:current-layer="svg2">
    <inkscape:grid
       type="xygrid"
       id="grid4164" />
  </sodipodi:namedview>
  <path
     inkscape:connector-curvature="0"
     id="path6"
     d="M 6.5699487,3.4020274 7.8665618,6.6924288 9.3232706,2.9500306"
     style="fill:none;stroke:#de4646;stroke-width:0.25;stroke-linecap:round;stroke-linejoin:round;stroke-miterlimit:4;stroke-dasharray:none"
     sodipodi:nodetypes="ccc" />
  <path
     inkscape:connector-curvature="0"
     id="path8"
     d="M 6.5699487,3.4020522 4.0535287,6.9138773 4.5402528,3.779222"
     style="fill:none;stroke:#de4646;stroke-width:0.25;stroke-linecap:round;stroke-linejoin:round;stroke-miterlimit:4;stroke-dasharray:none"
     sodipodi:nodetypes="ccc" />
  <path
     style="fill:none;stroke:#de4646;stroke-width:0.25;stroke-linecap:round;stroke-linejoin:round;stroke-miterlimit:4;stroke-dasharray:none"
     d="M 9.3232706,2.9530886 12.209174,5.8531207 11.606489,2.8767446"
     id="path12"
     inkscape:connector-curvature="0"
     sodipodi:nodetypes="ccc" />
  <path
     style="fill:none;stroke:#de4646;stroke-width:0.25;stroke-linecap:round;stroke-linejoin:round;stroke-miterlimit:4;stroke-dasharray:none"
     d="M 1.8749802,6.9472463 8.8587336,13.12492 5.8129242,6.8997208 Z"
     id="path14"
     inkscape:connector-curvature="0"
     sodipodi:nodetypes="cccc" />
  <path
     style="fill:none;stroke:#de4646;stroke-width:0.25;stroke-linecap:round;stroke-linejoin:round;stroke-miterlimit:4;stroke-dasharray:none"
     d="M 1.8752175,6.9472463 4.5299107,3.779222 6.5699487,3.4020522 5.8129242,6.8997208 Z"
     id="path16"
     inkscape:connector-curvature="0"
     sodipodi:nodetypes="ccccc" />
  <path
     style="fill:none;stroke:#de4646;stroke-width:0.25;stroke-linecap:round;stroke-linejoin:round;stroke-miterlimit:4;stroke-dasharray:none"
     d="m 9.3232706,2.9500551 2.2832184,-0.073198 2.518523,2.4312681 -4.020933,1.1436436"
     id="path18"
     inkscape:connector-curvature="0"
     sodipodi:nodetypes="cccc" />
  <path
     style="fill:none;stroke:#de4646;stroke-width:0.25;stroke-linecap:round;stroke-linejoin:round;stroke-miterlimit:4;stroke-dasharray:none"
     d="M 6.5698537,3.4020522 9.3232706,2.9500551 10.104079,6.4517688 5.8129242,6.8998488"
     id="path20"
     inkscape:connector-curvature="0"
     sodipodi:nodetypes="cccc" />
  <path
     style="fill:none;stroke:#de4646;stroke-width:0.25;stroke-linecap:round;stroke-linejoin:round;stroke-miterlimit:4;stroke-dasharray:none"
     d="M 8.8587336,13.125045 14.125012,5.3081252 10.104079,6.4515328 Z"
     id="path22"
     inkscape:connector-curvature="0"
     sodipodi:nodetypes="cccc" />
  <path
     style="fill:none;stroke:#de4646;stroke-width:0.125;stroke-linecap:round;stroke-linejoin:round;stroke-miterlimit:4;stroke-dasharray:none"
     d="M 12.209174,5.8531507 8.8587336,13.125045"
     id="path26"
     inkscape:connector-curvature="0"
     sodipodi:nodetypes="cc" />
  <path
     style="fill:none;stroke:#de4646;stroke-width:0.125;stroke-linecap:round;stroke-linejoin:round;stroke-miterlimit:4;stroke-dasharray:none"
     d="M 7.8664038,6.6924288 8.8587336,13.125045"
     id="path28"
     inkscape:connector-curvature="0"
     sodipodi:nodetypes="cc" />
  <path
     style="fill:none;stroke:#de4646;stroke-width:0.125;stroke-linecap:round;stroke-linejoin:round;stroke-miterlimit:4;stroke-dasharray:none"
     d="m 4.0534496,6.9138773 4.805284,6.2111677"
     id="path30"
     inkscape:connector-curvature="0"
     sodipodi:nodetypes="cc" />
</svg>

<svg xmlns="http://www.w3.org/2000/svg" viewBox="0 0 16 16">
 <path d="m 6.57 3.402 1.297 3.29 1.457 -3.742" style="stroke-dasharray:none;fill:none;stroke-miterlimit:4;stroke:#de4646;stroke-linecap:round;stroke-linejoin:round;stroke-width:0.25"/>
 <path d="m 6.57 3.402 -2.516 3.512 0.487 -3.135" style="stroke-dasharray:none;fill:none;stroke-miterlimit:4;stroke:#de4646;stroke-linecap:round;stroke-linejoin:round;stroke-width:0.25"/>
 <path d="m 9.323 2.953 2.886 2.9 -0.603 -2.976" style="stroke-dasharray:none;fill:none;stroke-miterlimit:4;stroke:#de4646;stroke-linecap:round;stroke-linejoin:round;stroke-width:0.25"/>
 <path d="m 1.875 6.947 6.984 6.178 -3.046 -6.225" style="stroke-dasharray:none;fill:none;stroke-miterlimit:4;stroke:#de4646;stroke-linecap:round;stroke-linejoin:round;stroke-width:0.25"/>
 <path d="m 1.875 6.947 2.655 -3.168 2.04 -0.377 -0.757 3.498" style="stroke-dasharray:none;fill:none;stroke-miterlimit:4;stroke:#de4646;stroke-linecap:round;stroke-linejoin:round;stroke-width:0.25"/>
 <path d="m 9.323 2.95 2.283 -0.073 2.519 2.431 -4.02 1.144" style="stroke-dasharray:none;fill:none;stroke-miterlimit:4;stroke:#de4646;stroke-linecap:round;stroke-linejoin:round;stroke-width:0.25"/>
 <path d="m 6.57 3.402 2.753 -0.452 0.781 3.502 -4.291 0.448" style="stroke-dasharray:none;fill:none;stroke-miterlimit:4;stroke:#de4646;stroke-linecap:round;stroke-linejoin:round;stroke-width:0.25"/>
 <path d="m 8.859 13.13 5.266 -7.817 -4.02 1.143" style="stroke-dasharray:none;fill:none;stroke-miterlimit:4;stroke:#de4646;stroke-linecap:round;stroke-linejoin:round;stroke-width:0.25"/>
 <path d="m 12.209 5.853 -3.35 7.272" style="stroke-dasharray:none;fill:none;stroke-miterlimit:4;stroke:#de4646;stroke-linecap:round;stroke-linejoin:round;stroke-width:0.125"/>
 <path d="m 7.866 6.692 0.992 6.433" style="stroke-dasharray:none;fill:none;stroke-miterlimit:4;stroke:#de4646;stroke-linecap:round;stroke-linejoin:round;stroke-width:0.125"/>
 <path d="m 4.053 6.914 4.805 6.211" style="stroke-dasharray:none;fill:none;stroke-miterlimit:4;stroke:#de4646;stroke-linecap:round;stroke-linejoin:round;stroke-width:0.125"/>
</svg>
